X: 2234
Q: "Irish Jig."
M: 6/8
L: 1/8
K: G
|:\
vG2vG uG2uB | ABA uA2uB | G2G G2B | d3 g3 |\
|: ud |\
gag gfe | ded dcB | gfg aga | b3 e2ud |\
gag gfe | ded dcB | vg2ve edB | ded cBA :|


